Papirus/16x16/mimetypes/x-content-blank-cd.svg

<svg xmlns="http://www.w3.org/2000/svg" width="16" height="16" version="1.1" viewBox="0 0 16 16">
 <path fill="#848484" d="m8 4c-2.2083 0-4 1.7917-4 4 0 2.208 1.7917 4 4 4 2.208 0 4-1.792 4-4 0-2.2083-1.792-4-4-4zm0 3c0.5521 0 1 0.4479 1 1s-0.4479 1-1 1-1-0.4479-1-1 0.4479-1 1-1z"/>
 <path fill="#e4e4e4" d="m8 1c-3.8791 0-7 3.1209-7 7 0 3.879 3.1209 7 7 7 3.879 0 7-3.121 7-7 0-3.8791-3.121-7-7-7zm0 4c1.6562 0 3 1.3438 3 3s-1.3438 3-3 3-3-1.3438-3-3 1.3438-3 3-3z"/>
</svg>

<svg xmlns="http://www.w3.org/2000/svg" width="16" height="16" version="1.1" viewBox="0 0 16 16">
 <path style="fill:#848484" d="M 8 4 A 4 4 0 0 0 4 8 A 4 4 0 0 0 8 12 A 4 4 0 0 0 12 8 A 4 4 0 0 0 8 4 z M 8 7 A 1 1 0 0 1 9 8 A 1 1 0 0 1 8 9 A 1 1 0 0 1 7 8 A 1 1 0 0 1 8 7 z"/>
 <path style="fill:#e4e4e4" d="M 8 1 A 7 7 0 0 0 1 8 A 7 7 0 0 0 8 15 A 7 7 0 0 0 15 8 A 7 7 0 0 0 8 1 z M 8 5 A 3 3 0 0 1 11 8 A 3 3 0 0 1 8 11 A 3 3 0 0 1 5 8 A 3 3 0 0 1 8 5 z"/>
</svg>
